svg/printer_pos_pause.svg

<svg xmlns="http://www.w3.org/2000/svg" viewBox="0 0 24 24"><path d="M17 9H7V4h10zm3 4.09c-.33-.05-.66-.09-1-.09-3.31 0-6 2.69-6 6H4v-7a2 2 0 0 1 2-2h12a2 2 0 0 1 2 2zM10 12H6v2h4zm6 10h2v-6h-2zm4-6v6h2v-6z"/></svg>

<svg xmlns="http://www.w3.org/2000/svg" id="mdi-printer-pos-pause" viewBox="0 0 24 24"><path d="M17 9H7V4H17V9M20 13.09C19.67 13.04 19.34 13 19 13C15.69 13 13 15.69 13 19H4V12C4 10.9 4.89 10 6 10H18C19.11 10 20 10.9 20 12V13.09M10 12H6V14H10V12M16 22H18V16H16V22M20 16V22H22V16H20Z" /></svg>
